static/logos/appsmith-glyph-color.svg

<svg width="50" height="50" viewBox="0 0 50 50" fill="none" xmlns="http://www.w3.org/2000/svg">
<g clip-path="url(#clip0_1_3499)">
<path d="M49.7512 2.77783H3.79159C3.65212 2.77783 3.53906 2.89089 3.53906 3.03036V48.99C3.53906 49.1294 3.65212 49.2425 3.79159 49.2425H49.7512C49.8906 49.2425 50.0037 49.1294 50.0037 48.99V3.03036C50.0037 2.89089 49.8906 2.77783 49.7512 2.77783Z" fill="#EE5C27"/>
<path d="M46.2121 0H0.252525C0.113059 0 0 0.113059 0 0.252525V46.2121C0 46.3516 0.113059 46.4646 0.252525 46.4646H46.2121C46.3516 46.4646 46.4646 46.3516 46.4646 46.2121V0.252525C46.4646 0.113059 46.3516 0 46.2121 0Z" fill="white"/>
<path d="M17.2341 30.8586C17.0133 30.4692 16.8413 29.7048 16.7206 28.5637C15.4472 30.3849 13.4139 31.2968 10.6233 31.2968C8.54116 31.2968 6.88265 30.7975 5.64522 29.8018C4.40777 28.8033 3.78906 27.4203 3.78906 25.645C3.78906 22.2193 6.2126 20.2633 11.0622 19.7793L13.9274 19.5246C14.8824 19.4024 15.5679 19.1782 15.9838 18.8497C16.3997 18.5211 16.6076 18.0295 16.6076 17.3749C16.6076 16.5727 16.3458 15.9843 15.8195 15.6073C15.2932 15.2304 14.4049 15.0419 13.1546 15.0419C11.8068 15.0419 10.8415 15.2661 10.2536 15.7169C9.66563 16.1651 9.32416 16.9369 9.22406 18.0295H4.66964C4.93921 13.7531 7.78123 11.6162 13.1931 11.6162C18.4587 11.6162 21.0902 13.4984 21.0902 17.2654V27.2879C21.0902 28.941 21.3469 30.1304 21.8629 30.8586H17.2341ZM15.2495 26.8293C16.1558 26.0397 16.6076 24.9039 16.6076 23.4215V21.7099C16.1661 22.0971 15.4446 22.3543 14.4408 22.474L11.9428 22.7644C10.7182 22.9096 9.84277 23.1948 9.31649 23.6202C8.79017 24.0455 8.52575 24.6593 8.52575 25.4617C8.52575 26.2639 8.80045 26.8879 9.35242 27.3387C9.90439 27.7894 10.6925 28.0137 11.722 28.0137C13.17 28.0137 14.3433 27.619 15.2495 26.8293Z" fill="#2A2F3D"/>
<path d="M42.4645 31.3818H24.3906V34.8813H42.4645V31.3818Z" fill="#2A2F3D"/>
</g>
<defs>
<clipPath id="clip0_1_3499">
<rect width="50" height="49.2424" fill="white"/>
</clipPath>
</defs>
</svg>

<svg xmlns="http://www.w3.org/2000/svg" width="64" height="64" fill="none" viewBox="0 0 50 50"><g clip-path="url(#a)"><path fill="#EE5C27" d="M49.751 2.778H3.791a.253.253 0 0 0-.252.252v45.96c0 .14.113.252.253.252h45.96c.139 0 .252-.113.252-.252V3.03a.253.253 0 0 0-.253-.252Z"/><path fill="#fff" d="M46.212 0H.252A.253.253 0 0 0 0 .253v45.96c0 .139.113.252.253.252h45.96c.139 0 .252-.113.252-.253V.252A.252.252 0 0 0 46.212 0Z"/><path fill="#2A2F3D" d="M17.234 30.859c-.22-.39-.393-1.154-.513-2.295-1.274 1.82-3.307 2.733-6.098 2.733-2.082 0-3.74-.5-4.978-1.495-1.237-.999-1.856-2.382-1.856-4.157 0-3.426 2.424-5.382 7.273-5.866l2.865-.254c.955-.123 1.64-.347 2.057-.675.416-.329.624-.82.624-1.475 0-.802-.262-1.39-.789-1.768-.526-.377-1.414-.565-2.664-.565-1.348 0-2.313.224-2.901.675-.588.448-.93 1.22-1.03 2.312H4.67c.27-4.276 3.111-6.413 8.523-6.413 5.266 0 7.897 1.882 7.897 5.65v10.022c0 1.653.257 2.842.773 3.57h-4.629Zm-1.985-4.03c.907-.79 1.359-1.925 1.359-3.407V21.71c-.442.387-1.163.644-2.167.764l-2.498.29c-1.225.146-2.1.43-2.627.856-.526.425-.79 1.04-.79 1.842s.274 1.426.826 1.877c.552.45 1.34.675 2.37.675 1.448 0 2.621-.395 3.527-1.185ZM42.465 31.382H24.39v3.5h18.074v-3.5Z"/></g><defs><clipPath id="a"><path fill="#fff" d="M0 0h50v49.242H0z"/></clipPath></defs></svg>
